X: 20183
T: Jock O'Hazeldean
R: waltz
M: 3/4
K: Gmajor
g2|"G"d4B2|"D/F#"A4G2|"Em"G2B4|"G/D"D4E2|"C"G4G2|c4B2|"D"(A6|"D7"A4)g2|
w:1.~Why weep ye by the tide, la-dy, why weep ye by the tide?-- A'll
w:2.~Now let this will-fu greif be dune, an dry those cheeks sae pale.-- young
w:3.~A chain of gowd ye sall-nae lack, nor braid tae bind your hair,-- nor
w:4.~The kirk was deckt at mor-nin tide, the ta-per glim-meret fair.-- The
"G"d4B2|"D/F#"A4G2|"Em"G2B4|"G/D"D4E2|"C"G4c2|"D7"A4G2|"G"(G6|G4)|
w:wad ye tae my young- est son an ye shall be his bride.
w:Frank is Chief o Er-ring-ton, an Lord o Lang-ley-dale.
w:met-tled hound, nor man-aged hawk, nor pal-frey fresh an fair.
w:priest an bride-groom wait the bride, an dame an night were there.
B2|"C"c4B2|c4d2|e4d2|g4e2|"G"d4B2|"Em"G2B2d2|"C"(e6|e4)g2|
w:An ye shall be his bride la-dy, sae come-ly tae-- be seen, -but
w:His step is first in peace-fu haa, his sword in ba--ttle keen, -but
w:An you the fore-maist o them aa, sall ride our for--est Queen, -but
w:They searcht for her in bower an haa, the la-dy wis--nae seen. -She's
"G"d4B2|"D/F#"A4G2|"Em"G2B4|"G/D"D4E2|"C"G4c2|"D7"A4G2|"G"(G6|G4):|
w:aye she lout the tears doun-faa for Jock o Ha-zel-dean.
w:aye she lout the tears doun-faa for Jock o Ha-zel-dean.
w:aye she lout the tears doun-faa for Jock o Ha-zel-dean.
w:owre the bor-der an a-wa, wi Jock o Ha-zel-dean.

